src/assets/svg/vimeo.svg

<?xml version="1.0" encoding="UTF-8"?>
<svg width="20px" height="18px" viewBox="0 0 20 18" version="1.1" xmlns="http://www.w3.org/2000/svg" xmlns:xlink="http://www.w3.org/1999/xlink">
    <!-- Generator: Sketch 50.2 (55047) - http://www.bohemiancoding.com/sketch -->
    <title>vimeo</title>
    <desc>Created with Sketch.</desc>
    <defs></defs>
    <g id="Page-1" stroke="none" stroke-width="1" fill="none" fill-rule="evenodd">
        <g id="Artboard" transform="translate(-569.000000, -847.000000)" fill="#000000" fill-rule="nonzero">
            <g id="vimeo" transform="translate(569.000000, 847.000000)">
                <path d="M19.987715,4.1774308 C19.9058149,6.18736693 18.5462735,8.95954578 15.9090909,12.4939674 C13.1818182,16.1646558 10.8804259,18 9.004914,18 C7.84193284,18 6.85913186,16.8800568 6.05651106,14.6401703 C5.6961507,13.2775018 5.15561016,11.2249823 4.43488943,8.48261178 C3.84520885,6.25124202 3.2022932,5.13555713 2.50614251,5.13555713 C2.35872236,5.13555713 1.83865684,5.45919092 0.945945946,6.10645848 L0,4.85450674 C0.196560197,4.67565649 0.638820639,4.26472676 1.32678133,3.62171753 C2.01474201,2.9787083 2.54709255,2.48687012 2.92383292,2.14620298 C4.2014742,0.970901348 5.18837019,0.349183818 5.88452088,0.28105039 C6.66257166,0.204400284 7.28910729,0.440738112 7.76412776,0.990063875 C8.23914824,1.53938964 8.57084357,2.40596167 8.75921376,3.58977999 C9.11957412,6.03406671 9.38984439,7.62242725 9.57002457,8.3548616 C10.020475,10.4755145 10.5118755,11.535841 11.044226,11.535841 C11.4619165,11.535841 12.0925471,10.8502484 12.9361179,9.47906317 C13.7633088,8.10787793 14.2096642,7.06032647 14.2751843,6.3364088 C14.3816544,5.15259049 13.9352989,4.56068133 12.9361179,4.56068133 C12.4692875,4.56068133 11.973792,4.67139815 11.4496314,4.8928318 C12.4324324,1.54577715 14.3120393,-0.0809084457 17.0884521,0.0127750177 C19.1441441,0.0809084457 20.1105651,1.46912704 19.987715,4.1774308 Z" id="Shape"></path>
            </g>
        </g>
    </g>
</svg>

<svg width="20" height="18" xmlns="http://www.w3.org/2000/svg"><path d="M19.988 4.177c-.082 2.01-1.442 4.783-4.079 8.317C13.182 16.164 10.88 18 9.005 18c-1.163 0-2.146-1.12-2.948-3.36-.36-1.362-.901-3.415-1.622-6.157-.59-2.232-1.233-3.347-1.929-3.347-.147 0-.667.323-1.56.97L0 4.855c.197-.18.639-.59 1.327-1.233a141.67 141.67 0 0 1 1.597-1.476C4.2.971 5.188.35 5.884.281c.779-.077 1.405.16 1.88.71.475.548.807 1.415.995 2.599.36 2.444.63 4.032.811 4.765.45 2.12.942 3.18 1.474 3.18.418 0 1.049-.685 1.892-2.056.827-1.371 1.274-2.419 1.34-3.143.106-1.183-.34-1.775-1.34-1.775-.467 0-.962.11-1.486.332.982-3.347 2.862-4.974 5.638-4.88 2.056.068 3.023 1.456 2.9 4.164z" fill="#000" fill-rule="nonzero"/></svg>
